public/avatar/hat/78.svg

<svg xmlns:xlink="http://www.w3.org/1999/xlink" height="92.9" width="100.7" xmlns="http://www.w3.org/2000/svg"><use height="32.05" transform="translate(14.6 44.75)" width="48.35" xlink:href="#a"/><defs><g id="a"><path d="m13.5 8.6-.7-1.45L8.9 3.3Q7.75 1.85 6.45 1L6.6-.55l2.15-1.6q2.7-1.7 5.55-2.15 1.75-.25 3.9 3.45l1.55 3.15q-1.1.3-1.9 1.2-.35.8-.45 1.65-.15 1.05-.7 2l-.35.1L13.5 8.6m7.45.5.55 6.25q.15 2.9 2.3 5.85-2.1-.55-3.15-1.35l-1.5-2.15q-1.65 4.65-3.7 2.9-.55-.45-1-1.3l.65.2-.45-4-.35-3.95-.05-.25-.05-.25V11l.15.9q.35-.5.85-.9 2.2-1.9 5.45-1.8l.3-.1" fill="#f7bd00" fill-rule="evenodd" transform="translate(24.05 5)"/><path d="m19.75 2.3.2.6.05.1.2.8.1.55.55 3.95.1.8-.3.1Q17.4 9.1 15.2 11q-.5.4-.85.9l-.15-.9v-.05l-.1-.25-.4-1.5-.2-.6 2.85-1.35.35-.1q.55-.95.7-2 .1-.85.45-1.65.8-.9 1.9-1.2" fill="#ffebc7" fill-rule="evenodd" transform="translate(24.05 5)"/><path d="M11.75-3.1q.75.3 1.95 4.2 1 1.95 2 6.2-.65-1.85-1.35-2.65l-2.7-3.5q-1.25-1.7-3.1-2.6 2.15-2.15 3.2-1.65" fill="#c29400" fill-rule="evenodd" transform="translate(24.05 5)"/><path d="M-19.65 2.05q2.2-6.75 4.95-6.35 4.6.75 7.5 3.75l.15 2.1Q-10 3.1-11.6 5.95l-3.05-.15-.3-.45-.15-.7-.05-.1-.2-.25-.1-.4-.05-.1-.85-1.05-.25-.25-.1-.05q-1.1-.8-2.55-.6l-.4.2m6.95 7.5-.55 2.6-1 1.55q-.35.45-.15 2.3-1.15 3.15-1 5.35-.4.35-1.05.35-1.2 0-2.5-1.45-.7-.85-.95-2.3l-.55-2.35q-1.65 3.5-3.6 4 1.45-3.6 2.25-7.75l1.05-5.75 3.15-.05.25.3.6 1.45.25.25.15.5.1.25.1.1.3.2.25.3.2.1 2.7.05m-7.85-4.3.05-.05h.1l-.15.05" fill="#f7bd00" fill-rule="evenodd" transform="translate(24.05 5)"/><path d="m-11.6 5.95-.15.3-.25.45v.05l-.6 2.2-.1.6-2.7-.05-.2-.1-.25-.3-.3-.2-.1-.1-.1-.25-.15-.5-.25-.25-.6-1.45-.25-.3-3.15.05.05-.25.15-.6.15-.05h-.1l.55-2.1.3-1.05.4-.2q1.45-.2 2.55.6l.1.05.25.25.85 1.05.05.1.1.4.2.25.05.1.15.7.3.45 3.05.15" fill="#ffebc7" fill-rule="evenodd" transform="translate(24.05 5)"/><path d="M-11.2-1.5q1.7-.85 2.35.15.3.45-1.05 1.3l-1.95 1.15q-1.3 1-2.35 3.2.1-2.8.95-4.2.6-.95 2.05-1.6m-3 5.8v.55h-.25l.25-.55" fill="#c29400" fill-rule="evenodd" transform="translate(24.05 5)"/><path d="m6.35 2.7 7.3 11v1.95q.15 2.25.8 3.65-.4-.3-.8-1.35l-.75-1.2-1.65.15-1.9.25-.9-2.95-.05-1.55q-.05-.9-.65-1.3l-1.85 2.9q-1.2 1.5-2.45-.55Q2.6 11.1 1.5 10l-2.85-3.1q-.15 1.35-2.45 4.9-.9 1.35-.8 2.8l.55 2.95q-2.5-.8-5-3.2-1.6-1.55-3.75 2.3-1.15 2-2.55 5.35l-.05-.65q.85-.75 1.1-2.6l-.1-2.75.6-1.55q.45-1.35.55-2.3l6.3-9.45-.1-1.15 3-1.2Q2.4-1.8 6.45 1l-.1 1.7" fill-opacity=".251" fill-rule="evenodd" transform="translate(24.05 5)"/><path d="M14.1 10.7q.45 1.7.55 4.8l.45 4-.65-.2q-.65-1.4-.8-3.65V13.7l-7.3-11 .1-1.7q1.3.85 2.45 2.3l3.9 3.85q.65.9 1.3 3.55m-26.1-4q1.6-3.4 4.95-5.15l.1 1.15-6.3 9.45L-12 6.7m-2.4 9.3.1 2.75q-.25 1.85-1.1 2.6-.15-2.2 1-5.35" fill="#b98e00" fill-rule="evenodd" transform="translate(24.05 5)"/><path d="M6.25 2.45q.6 3.85-.1 5.9-1.1 3.1-.6 5-1.7-.7-3.9-5.5l-2.35-6-1.4 4.25q-.65 1.5-2.7 3.55-1.95 1.85-2.15 7.8-1.4-.1-2.85-4.6-.35-1.25.15-3.55l.55-2.05-2.1 3.1-2.05 4.9q-1.85 5.35-2 10.6-.3-.35-.85-3.35-.7-3.6-.6-6.3.3-8.2 4-13.35 4-5.6 12.85-5.8Q8.8-3.2 13.3 3.35q3.9 5.8 3.35 15-.45 6.05-2.35 8.2.85-4.2-.65-10.45-1.65-5.75-1.7-7 0 5.35-2.8 6.4.2-.05.25-2.45 0-2.55-.35-4.3-.3-1.55-1.6-4.1l-1.2-2.2" fill="#f7bd00" fill-rule="evenodd" transform="translate(24.05 5)"/><path d="M-9.05 8.25q-.15 1.15 1.8 3.4.3 1.2.05 5.8-.8-.4-2.45-4.45-1.05-2.4.2-4.5l.4-.25m15.5-3 .1 1.1q-1.5 5.45-1.65 6.5-1.55-.75-2.95-4.2-1.55-3.9-2.3-4.7Q5.3 10 6.45 5.25" fill="#c29400" fill-rule="evenodd" transform="translate(24.05 5)"/><path d="m6.15 2.85 3 5.5q.5 2 0 7.15M-.7 2.35 1.95 8.7q1.7 2.85 3.6 4.65" fill="none" stroke="#593f0e" stroke-linecap="round" stroke-linejoin="round" transform="translate(24.05 5)"/><path d="M-7.05 15.85q-.8-3.3 1.5-5.15Q-2.8 8.55-1.7 5.35l.35-2" fill="none" stroke="#996c18" stroke-linecap="round" stroke-linejoin="round" transform="translate(24.05 5)"/><path d="m-9.1 7.25-.5 1.65q-.45 1.95-.25 3.3.3 2.15 1.65 4.4l.65.75" fill="none" stroke="#543b0d" stroke-linecap="round" stroke-linejoin="round" transform="translate(24.05 5)"/><path d="m14.65 25.85-.35-6.8q-.35-4.5-2.5-9.2" fill="none" stroke="#996c18" stroke-linecap="round" stroke-linejoin="round" transform="translate(24.05 5)"/><path d="M-15.25 25.85q-2.45-5.5-.95-13.8Q-13.45-3.15.95-3.15q7.6 0 11.8 5.6 2.6 3.5 3.2 7.75 1.7 12-1.65 16.35" fill="none" stroke="#6e3b00" stroke-linecap="round" stroke-linejoin="round" transform="translate(24.05 5)"/><path d="m5.3 12.85.1-1.75q.2-1.9.75-2.75.8-1.3.3-4.8m2.7 11.95q1.65-.95 2.15-2.15.5-1.15.65-4.3v-2.2" fill="none" stroke="#996c18" stroke-linecap="round" stroke-linejoin="round" transform="translate(24.05 5)"/><path d="M-4.05 7.25q-1.15 2.1-2.4 2.85-.8.45-1.35 1.65l-.4 1.1M5.7 4.6q.25 1.15-.4 2.65-.6 1.5-.75 2.35" fill="none" stroke="#ffebc7" stroke-linecap="round" stroke-linejoin="round" transform="translate(24.05 5)"/><path d="m-13.45 15.75-1.5 5.6-.25 3.9m.85-9.25q-.15-1.35.25-4.25.5-3.25 1.3-4.9m3.5.9q-4 7.85-4.75 8.6" fill="none" stroke="#996c18" stroke-linecap="round" stroke-linejoin="round" transform="translate(24.05 5)"/><path d="m-13.45 9.25.9 4.25-1.5 2.1.6-6.35" fill="#c29400" fill-rule="evenodd" transform="translate(24.05 5)"/><path d="m1.65-2.15 2.35.3q2.65.55 4.3 1.9 2.65 2.15 3.65 3.5m2.7 6.15.8 6v2.35" fill="none" stroke="#ffebc7" stroke-linecap="round" stroke-linejoin="round" transform="translate(24.05 5)"/><path d="M-8.2-1.4q-5.55-4.1-7.9-2.8-2 1.15-4.25 8.55-1.2 3.8-1.35 9.35-.5 3.1-1.85 5.8 2.1-.55 3.25-3.4l1 3.65q1.1 1.85 3.1 2.05M8.45-1.8l2.25-1.4q2.45-1.4 3.6-1.1 1.6.45 3.5 3.4 2.15 3.3 2.5 6.75.5 5 1.35 10.5.15 2.2 2.15 4.85-1.65.5-3.15-1.35l-1.5-2.15" fill="none" stroke="#6e3b00" stroke-linecap="round" stroke-linejoin="round" transform="translate(24.05 5)"/><path d="M16.05 21.35q2.65-1 3.25-4.5l.35-3.15" fill="none" stroke="#6e3b00" stroke-linecap="round" stroke-linejoin="round" transform="translate(24.05 5)"/><path d="M16.8-.25q1.9 3.1 2.25 5.85l.5 3.75" fill="none" stroke="#ffebc7" stroke-linecap="round" stroke-linejoin="round" transform="translate(24.05 5)"/></g></defs></svg>

<?xml version="1.0" encoding="UTF-8" standalone="no"?>
<svg xmlns:xlink="http://www.w3.org/1999/xlink" height="92.9px" width="100.7px" xmlns="http://www.w3.org/2000/svg">
  <g transform="matrix(1.0, 0.0, 0.0, 1.0, 38.65, 49.75)">
    <use height="32.05" transform="matrix(1.0, 0.0, 0.0, 1.0, -24.05, -5.0)" width="48.35" xlink:href="#shape0"/>
  </g>
  <defs>
    <g id="shape0" transform="matrix(1.0, 0.0, 0.0, 1.0, 24.05, 5.0)">
      <path d="M13.5 8.6 L12.8 7.15 8.9 3.3 Q7.75 1.85 6.45 1.0 L6.6 -0.55 8.75 -2.15 Q11.45 -3.85 14.3 -4.3 16.05 -4.55 18.2 -0.85 L19.75 2.3 Q18.65 2.6 17.85 3.5 17.5 4.3 17.4 5.15 17.25 6.2 16.7 7.15 L16.35 7.25 13.5 8.6 M20.95 9.1 L21.5 15.35 Q21.65 18.25 23.8 21.2 21.7 20.65 20.65 19.85 L19.15 17.7 Q17.5 22.35 15.45 20.6 14.9 20.15 14.45 19.3 L15.1 19.5 14.65 15.5 14.3 11.55 14.25 11.3 14.2 11.05 14.2 11.0 14.35 11.9 Q14.7 11.4 15.2 11.0 17.4 9.1 20.65 9.2 L20.95 9.1" fill="#f7bd00" fill-rule="evenodd" stroke="none"/>
      <path d="M19.75 2.3 L19.95 2.9 20.0 3.0 20.2 3.8 20.3 4.35 20.85 8.3 20.95 9.1 20.65 9.2 Q17.4 9.1 15.2 11.0 14.7 11.4 14.35 11.9 L14.2 11.0 14.2 10.95 14.1 10.7 13.7 9.2 13.5 8.6 16.35 7.25 16.7 7.15 Q17.25 6.2 17.4 5.15 17.5 4.3 17.85 3.5 18.65 2.6 19.75 2.3" fill="#ffebc7" fill-rule="evenodd" stroke="none"/>
      <path d="M11.75 -3.1 Q12.5 -2.8 13.7 1.1 14.7 3.05 15.7 7.3 15.05 5.45 14.35 4.65 L11.65 1.15 Q10.4 -0.55 8.55 -1.45 10.7 -3.6 11.75 -3.1" fill="#c29400" fill-rule="evenodd" stroke="none"/>
      <path d="M-19.65 2.05 Q-17.45 -4.7 -14.7 -4.3 -10.1 -3.55 -7.2 -0.55 L-7.05 1.55 Q-10.0 3.1 -11.6 5.95 L-14.65 5.8 -14.95 5.35 -15.1 4.65 -15.15 4.55 -15.35 4.3 -15.45 3.9 -15.5 3.8 -16.35 2.75 -16.6 2.5 -16.7 2.45 Q-17.8 1.65 -19.25 1.85 L-19.65 2.05 M-12.7 9.55 L-13.25 12.15 -14.25 13.7 Q-14.6 14.15 -14.4 16.0 -15.55 19.15 -15.4 21.35 -15.8 21.7 -16.45 21.7 -17.65 21.7 -18.95 20.25 -19.65 19.4 -19.9 17.95 L-20.45 15.6 Q-22.1 19.1 -24.05 19.6 -22.6 16.0 -21.8 11.85 L-20.75 6.1 -17.6 6.05 -17.35 6.35 -16.75 7.8 -16.5 8.05 -16.35 8.55 -16.25 8.8 -16.15 8.9 -15.85 9.1 -15.6 9.4 -15.4 9.5 -12.7 9.55 M-20.55 5.25 L-20.5 5.2 -20.4 5.2 -20.55 5.25" fill="#f7bd00" fill-rule="evenodd" stroke="none"/>
      <path d="M-11.6 5.95 L-11.75 6.25 -12.0 6.7 -12.0 6.75 -12.6 8.95 -12.7 9.55 -15.4 9.5 -15.6 9.4 -15.85 9.1 -16.15 8.9 -16.25 8.8 -16.35 8.55 -16.5 8.05 -16.75 7.8 -17.35 6.35 -17.6 6.05 -20.75 6.1 -20.7 5.85 -20.55 5.25 -20.4 5.2 -20.5 5.2 -19.95 3.1 -19.65 2.05 -19.25 1.85 Q-17.8 1.65 -16.7 2.45 L-16.6 2.5 -16.35 2.75 -15.5 3.8 -15.45 3.9 -15.35 4.3 -15.15 4.55 -15.1 4.65 -14.95 5.35 -14.65 5.8 -11.6 5.95" fill="#ffebc7" fill-rule="evenodd" stroke="none"/>
      <path d="M-11.2 -1.5 Q-9.5 -2.35 -8.85 -1.35 -8.55 -0.9 -9.9 -0.05 L-11.85 1.1 Q-13.15 2.1 -14.2 4.3 -14.1 1.5 -13.25 0.1 -12.65 -0.85 -11.2 -1.5 M-14.2 4.3 L-14.2 4.85 -14.45 4.85 -14.2 4.3" fill="#c29400" fill-rule="evenodd" stroke="none"/>
      <path d="M6.35 2.7 L13.65 13.7 13.65 15.65 Q13.8 17.9 14.45 19.3 14.05 19.0 13.65 17.95 L12.9 16.75 11.25 16.9 9.35 17.15 8.45 14.2 8.4 12.65 Q8.35 11.75 7.75 11.35 L5.9 14.25 Q4.7 15.75 3.45 13.7 2.6 11.1 1.5 10.0 L-1.35 6.9 Q-1.5 8.25 -3.8 11.8 -4.7 13.15 -4.6 14.6 L-4.05 17.55 Q-6.55 16.75 -9.05 14.35 -10.65 12.8 -12.8 16.65 -13.95 18.65 -15.35 22.0 L-15.4 21.35 Q-14.55 20.6 -14.3 18.75 L-14.4 16.0 -13.8 14.45 Q-13.35 13.1 -13.25 12.15 L-6.95 2.7 -7.05 1.55 -4.05 0.35 Q2.4 -1.8 6.45 1.0 L6.35 2.7" fill="#000000" fill-opacity="0.2509804" fill-rule="evenodd" stroke="none"/>
      <path d="M14.1 10.7 Q14.55 12.4 14.65 15.5 L15.1 19.5 14.45 19.3 Q13.8 17.9 13.65 15.65 L13.65 13.7 6.35 2.7 6.45 1.0 Q7.75 1.85 8.9 3.3 L12.8 7.15 Q13.45 8.05 14.1 10.7" fill="#b98e00" fill-rule="evenodd" stroke="none"/>
      <path d="M-12.0 6.7 Q-10.4 3.3 -7.05 1.55 L-6.95 2.7 -13.25 12.15 -12.0 6.7 M-14.4 16.0 L-14.3 18.75 Q-14.55 20.6 -15.4 21.35 -15.55 19.15 -14.4 16.0" fill="#b98e00" fill-rule="evenodd" stroke="none"/>
      <path d="M6.25 2.45 Q6.85 6.3 6.15 8.35 5.05 11.45 5.55 13.35 3.85 12.65 1.65 7.85 L-0.7 1.85 -2.1 6.1 Q-2.75 7.6 -4.8 9.65 -6.75 11.5 -6.95 17.45 -8.35 17.35 -9.8 12.85 -10.15 11.6 -9.65 9.3 L-9.1 7.25 -11.2 10.35 -13.25 15.25 Q-15.1 20.6 -15.25 25.85 -15.55 25.5 -16.1 22.5 -16.8 18.9 -16.7 16.2 -16.4 8.0 -12.7 2.85 -8.7 -2.75 0.15 -2.95 8.8 -3.2 13.3 3.35 17.2 9.15 16.65 18.35 16.2 24.4 14.3 26.55 15.15 22.35 13.65 16.1 12.0 10.35 11.95 9.1 11.95 14.45 9.15 15.5 9.35 15.45 9.4 13.05 9.4 10.5 9.05 8.75 8.75 7.2 7.45 4.65 L6.25 2.45" fill="#f7bd00" fill-rule="evenodd" stroke="none"/>
      <path d="M-9.05 8.25 Q-9.2 9.4 -7.25 11.65 -6.95 12.85 -7.2 17.45 -8.0 17.05 -9.65 13.0 -10.7 10.6 -9.45 8.5 L-9.05 8.25" fill="#c29400" fill-rule="evenodd" stroke="none"/>
      <path d="M6.45 5.25 L6.55 6.35 Q5.05 11.8 4.9 12.85 3.35 12.1 1.95 8.65 0.4 4.75 -0.35 3.95 5.3 10.0 6.45 5.25" fill="#c29400" fill-rule="evenodd" stroke="none"/>
      <path d="M6.15 2.85 L9.15 8.35 Q9.65 10.35 9.15 15.5" fill="none" stroke="#593f0e" stroke-linecap="round" stroke-linejoin="round" stroke-width="1.0"/>
      <path d="M-0.7 2.35 L1.95 8.7 Q3.65 11.55 5.55 13.35" fill="none" stroke="#593f0e" stroke-linecap="round" stroke-linejoin="round" stroke-width="1.0"/>
      <path d="M-7.05 15.85 Q-7.85 12.55 -5.55 10.7 -2.8 8.55 -1.7 5.35 L-1.35 3.35" fill="none" stroke="#996c18" stroke-linecap="round" stroke-linejoin="round" stroke-width="1.0"/>
      <path d="M-9.1 7.25 L-9.6 8.9 Q-10.05 10.85 -9.85 12.2 -9.55 14.35 -8.2 16.6 L-7.55 17.35" fill="none" stroke="#543b0d" stroke-linecap="round" stroke-linejoin="round" stroke-width="1.0"/>
      <path d="M14.65 25.85 L14.3 19.05 Q13.95 14.55 11.8 9.85" fill="none" stroke="#996c18" stroke-linecap="round" stroke-linejoin="round" stroke-width="1.0"/>
      <path d="M-15.25 25.85 Q-17.7 20.35 -16.2 12.05 -13.45 -3.15 0.95 -3.15 8.55 -3.15 12.75 2.45 15.35 5.95 15.95 10.2 17.65 22.2 14.3 26.55" fill="none" stroke="#6e3b00" stroke-linecap="round" stroke-linejoin="round" stroke-width="1.0"/>
      <path d="M5.3 12.85 L5.4 11.1 Q5.6 9.2 6.15 8.35 6.95 7.05 6.45 3.55" fill="none" stroke="#996c18" stroke-linecap="round" stroke-linejoin="round" stroke-width="1.0"/>
      <path d="M9.15 15.5 Q10.8 14.55 11.3 13.35 11.8 12.2 11.95 9.05 L11.95 6.85" fill="none" stroke="#996c18" stroke-linecap="round" stroke-linejoin="round" stroke-width="1.0"/>
      <path d="M-4.05 7.25 Q-5.2 9.35 -6.45 10.1 -7.25 10.55 -7.8 11.75 L-8.2 12.85" fill="none" stroke="#ffebc7" stroke-linecap="round" stroke-linejoin="round" stroke-width="1.0"/>
      <path d="M5.7 4.6 Q5.95 5.75 5.3 7.25 4.7 8.75 4.55 9.6" fill="none" stroke="#ffebc7" stroke-linecap="round" stroke-linejoin="round" stroke-width="1.0"/>
      <path d="M-13.45 15.75 L-14.95 21.35 -15.2 25.25" fill="none" stroke="#996c18" stroke-linecap="round" stroke-linejoin="round" stroke-width="1.0"/>
      <path d="M-14.35 16.0 Q-14.5 14.65 -14.1 11.75 -13.6 8.5 -12.8 6.85" fill="none" stroke="#996c18" stroke-linecap="round" stroke-linejoin="round" stroke-width="1.0"/>
      <path d="M-9.3 7.75 Q-13.3 15.6 -14.05 16.35" fill="none" stroke="#996c18" stroke-linecap="round" stroke-linejoin="round" stroke-width="1.0"/>
      <path d="M-13.45 9.25 L-12.55 13.5 -14.05 15.6 -13.45 9.25" fill="#c29400" fill-rule="evenodd" stroke="none"/>
      <path d="M1.65 -2.15 L4.0 -1.85 Q6.65 -1.3 8.3 0.05 10.95 2.2 11.95 3.55" fill="none" stroke="#ffebc7" stroke-linecap="round" stroke-linejoin="round" stroke-width="1.0"/>
      <path d="M14.65 9.7 L15.45 15.7 15.45 18.05" fill="none" stroke="#ffebc7" stroke-linecap="round" stroke-linejoin="round" stroke-width="1.0"/>
      <path d="M-8.2 -1.4 Q-13.75 -5.5 -16.1 -4.2 -18.1 -3.05 -20.35 4.35 -21.55 8.15 -21.7 13.7 -22.2 16.8 -23.55 19.5 -21.45 18.95 -20.3 16.1 L-19.3 19.75 Q-18.2 21.6 -16.2 21.8" fill="none" stroke="#6e3b00" stroke-linecap="round" stroke-linejoin="round" stroke-width="1.0"/>
      <path d="M8.45 -1.8 L10.7 -3.2 Q13.15 -4.6 14.3 -4.3 15.9 -3.85 17.8 -0.9 19.95 2.4 20.3 5.85 20.8 10.85 21.65 16.35 21.8 18.55 23.8 21.2 22.15 21.7 20.65 19.85 L19.15 17.7" fill="none" stroke="#6e3b00" stroke-linecap="round" stroke-linejoin="round" stroke-width="1.0"/>
      <path d="M16.05 21.35 Q18.7 20.35 19.3 16.85 L19.65 13.7" fill="none" stroke="#6e3b00" stroke-linecap="round" stroke-linejoin="round" stroke-width="1.0"/>
      <path d="M16.8 -0.25 Q18.7 2.85 19.05 5.6 L19.55 9.35" fill="none" stroke="#ffebc7" stroke-linecap="round" stroke-linejoin="round" stroke-width="1.0"/>
    </g>
  </defs>
</svg>
